X:1
T: Hills of Glenorchy
C:
R:Jig
Q:180
K:D
M:6/8
L:1/16
|:dc|B4E2 E3FE2|B3AB2 d4B2|A4D2 D3ED2|F2D2F2 A2d2c2|
B4E2 E3FE2|B3AB2 e4e2|d2B2d2 A2F2D2|E3FE2 E4:|
|:B2|e3fe2 e2d2B2|e3fg2 g2f2e2|d3ed2 d2A2F2|d3cd2 f2e2d2|
e3fe2 e2d2B2|e3fg2 f2e2f2|d2B2d2 A2F2D2|E3FE2 E4:|
